build/img/about_methods/card/icons/green.svg

<svg width="63" height="62" viewBox="0 0 63 62" fill="none" xmlns="http://www.w3.org/2000/svg">
<path fill-rule="evenodd" clip-rule="evenodd" d="M25.1867 2.05767C38.1733 0.612829 53.3858 1.76385 58.6817 13.9105C64.893 28.1568 60.3945 45.4026 48.1793 54.7939C36.4678 63.7978 19.8591 61.9112 8.36727 52.593C-0.958702 45.0309 1.29029 31.3468 5.10982 19.8707C8.25769 10.4127 15.4196 3.14432 25.1867 2.05767Z" fill="#CAD396"/>
<path fill-rule="evenodd" clip-rule="evenodd" d="M20.4455 23.2946C20.414 22.3947 21.1181 21.6397 22.018 21.6083C22.9179 21.5768 23.6729 22.2809 23.7043 23.1808L23.7738 25.1695L20.5149 25.2833L20.4455 23.2946ZM20.947 37.6578L20.5672 26.7824L23.8261 26.6686L24.2059 37.544C24.2334 38.33 24.0285 39.1066 23.617 39.7768L23.0989 40.6205C22.9116 40.9254 22.474 40.9407 22.266 40.6496L21.6903 39.8441C21.233 39.2043 20.9745 38.4438 20.947 37.6578ZM27.0808 26.4345C26.9844 23.6748 29.1435 21.3594 31.9033 21.2631L37.1175 21.081C39.8772 20.9846 42.1926 23.1437 42.2889 25.9034L42.6263 35.5642C42.7227 38.324 40.5636 40.6393 37.8038 40.7357L32.5896 40.9177C29.8299 41.0141 27.5145 38.855 27.4182 36.0953L27.0808 26.4345ZM30.6926 26.7716C30.6782 26.3577 31.002 26.0104 31.416 25.9959L37.9337 25.7683C38.3477 25.7538 38.695 26.0777 38.7095 26.4917C38.7239 26.9056 38.4001 27.2529 37.9861 27.2674L31.4683 27.495C31.0544 27.5095 30.7071 27.1856 30.6926 26.7716ZM31.5685 30.3636C31.1545 30.3781 30.8307 30.7254 30.8451 31.1393C30.8596 31.5533 31.2069 31.8772 31.6208 31.8627L38.1386 31.6351C38.5526 31.6206 38.8764 31.2733 38.862 30.8594C38.8475 30.4454 38.5002 30.1216 38.0863 30.136L31.5685 30.3636ZM30.9977 35.507C30.9832 35.0931 31.3071 34.7458 31.721 34.7313L34.9799 34.6175C35.3939 34.6031 35.7412 34.9269 35.7556 35.3409C35.7701 35.7549 35.4462 36.1022 35.0323 36.1166L31.7734 36.2304C31.3594 36.2449 31.0121 35.921 30.9977 35.507Z" fill="white"/>
</svg>

<svg width="63" height="62" fill="none" xmlns="http://www.w3.org/2000/svg"><path fill-rule="evenodd" clip-rule="evenodd" d="M25.187 2.058C38.173.613 53.386 1.764 58.682 13.91c6.211 14.246 1.712 31.492-10.503 40.883-11.711 9.004-28.32 7.117-39.812-2.201C-.959 45.031 1.29 31.347 5.11 19.871 8.258 10.413 15.42 3.144 25.187 2.058Z" fill="#CAD396"/><path fill-rule="evenodd" clip-rule="evenodd" d="M20.445 23.295a1.63 1.63 0 1 1 3.26-.114l.069 1.988-3.26.114-.069-1.988Zm.502 14.363-.38-10.876 3.26-.113.379 10.875a4 4 0 0 1-.589 2.233l-.518.843a.5.5 0 0 1-.833.03l-.576-.806a4 4 0 0 1-.743-2.186Zm6.134-11.224a5 5 0 0 1 4.822-5.17l5.215-.183a5 5 0 0 1 5.17 4.822l.338 9.661a5 5 0 0 1-4.822 5.172l-5.214.182a5 5 0 0 1-5.172-4.823l-.337-9.66Zm3.612.338a.75.75 0 0 1 .723-.776l6.518-.228a.75.75 0 1 1 .052 1.5l-6.518.227a.75.75 0 0 1-.775-.723Zm.875 3.592a.75.75 0 0 0 .053 1.499l6.518-.228a.75.75 0 0 0-.053-1.499l-6.517.228Zm-.57 5.143a.75.75 0 0 1 .723-.776l3.259-.114a.75.75 0 0 1 .052 1.5l-3.259.113a.75.75 0 0 1-.775-.723Z" fill="#fff"/></svg>
